X:1
T:“Deuces Wild Rag”
T:“Deuces Wild Rag”
T:HUBERT BAUERSACHS
T:Copyright 1922 by H. T. BAUERSACHS &amp; CO.
T:Copyright 1922 by H. T. BAUERSACHS &amp; CO.
T:Copyright 1922 by H. T. BAUERSACHS &amp; CO.
C:HUBERT BAUERSACHS
Z:Copyright 1922 by H. T. BAUERSACHS & CO.
%%score { 1 | 2 }
L:1/8
Q:1/4=90
M:2/4
K:Eb
V:1 treble nm="Piano" snm="Pno."
V:2 treble 
V:1
"^Moderato"!p!"^Dedicated to\nMR. EARL E. FAY\n     St. Louis, Mo.\n" [d'f']/g'/f'/e'/- e'/^c'/d'/=b/ | %1
 [=ac']/[ac'][ac']/ [fb] z | [df]/g/[df]/[Be]/- [Be]/[=Aef]/[Aeg]/[=Ae=a]/ | [Bdb]2- [Bdb] z || %4
!mf! [Bgb]/[cac'][Bgb]/- [Bgb]/[^Fd^f]/[Geg] | [GBf]/g/[GB]- [GB]d/e/ | %6
 [Gg]/B/e/[GBeg]/- [GBeg]/f/d/e/ | [Ada]/[Ff]/[^F^f]/[Gg]/ [Aa]/[=A=a]/[Bb]/[=B=b]/ | %8
 [cac']/[dbd'][cac']/- [cac']/[G=eg]/[Afa] | [Af]/[ca][Ad]/- [Ad][=E=e]/[Ff]/ | %10
 [Aa]/[Bb]/[cc']/[ee']/- [ee']/[dd']/[=B=b]/[cc']/ | %11
!<(! [GBeg]/[Ee]/[=E=e]/[Ff]/ [^F^f]/[Gg]/[Aa]/[=A=a]/!<)! | %12
!f! [Bgb]/[cac'][Bgb]/- [Bgb]/[^Fd^f]/[Geg] | [GBf]/g/[GB]- [GB]d/e/ | %14
 [Gg]/B/e/[GBeg]/- [GBeg]/f/d/e/ | [cc']/e/a/[ceac']/- [ceac']/[=Bea=b]/[ceac'] | %16
 [cac']/[dbd'][cac']/- [cac']/[G=eg]/[Afa] | [Gegb]/[egbe'][GBeg]/- [GBeg][=B=b]/[cc']/ | %18
 [Bdab]/[=Bda=b][dac']/- [dac']/[^c^c']/[da_bd'] | %19
!>(! [egbe']/[d=bd']/[_d_b_d']/[c=ac']/ [=B^g=b]/[_B=g_b]/[=A^f=a]/[_A=f_a]/!>)! || %20
!mf! [Gceg]/[^Fce^f][Gceg]/- [Gceg]/[Fcef]/[Gceg]/[cc']/ | [Aa]/c/f/[Acfa]/- [Acfa]/[Gcg]/[Fcf] | %22
 z/ [DF=Bd]/[^CFB^c]/[DFBd]/- [DFBd]/[CFBc]/[DFBd]/[Gg]/ | %23
 [EGce][DGcd]/[EGce]/- [EGce]/[DGd]/[CGc] | [Gceg]/[^Fce^f][Gceg]/- [Gceg]/[Fcef]/[Gceg]/[cc']/ | %25
 [=B=b]/d/g/[Bdgb]/- [Bdgb]/[=Adg=a]/[Gdg] | %26
 z/ [=Ad^f=a]/[^Gd=f^g]/[Adfa]/- [Adfa]/[Gdfg]/[Adfa]/[dd']/ | [G=Bdg]2- [GBdg][da_b] | %28
!p! [egb]/c'/b/a/- a/^f/g/=e/ | [df]/[df][df]/ [Be] z | %30
!mf! [be'][c'f']/[be']/- [be']/^c'/[ad']/b/ | [gc'][ad']/[gc']/- [gc']/=a/[fb]/a/ | %32
 [db]/=a/[db]/[_ad']/- [ad']/[ec']/[db]/[ca]/ | [Bg]2 [Bdab]2 | %34
!f! [Begb]/[cac']/[Begb]/[Aea]/- [Aea]/[^Fe^f]/[Geg]/[=E=e]/ | [FBdf]/[FBdf][FBdf]/ [EBe] z | %36
 [be'][c'f']/[be']/- [be']/^c'/[ad']/b/ | [gc'][ad']/[gc']/- [gc']/=a/[fb]/a/ | %38
 [Bdb]/[=A^c=a]/[Bdb]/[dfd']/- [dfd']/[=ce=c']/[Bdb]/[f_af']/ | %39
!>(! [egbe']/[d=bd']/[_d_b_d']/[c=ac']/ [=B^g=b]/[_B=g_b]/[=A^f=a]/[_A=f_a]/!>)! | %40
!mf! [Gceg]/[^Fce^f][Gceg]/- [Gceg]/[Fcef]/[Gceg]/[cc']/ | [Aa]/c/f/[Acfa]/- [Acfa]/[Gcg]/[Fcf] | %42
 z/ [DF=Bd]/[^CFB^c]/[DFBd]/- [DFBd]/[CFBc]/[DFBd]/[Gg]/ | %43
 [EGce][DGcd]/[EGce]/- [EGce]/[DGd]/[CGc] | [Gceg]/[^Fce^f][Gceg]/- [Gceg]/[=Ae=a]/[Beb]/[cec']/ | %45
 [dd']/f/b/[dfbd']/- [dfbd']/[cfbc']/[Bfb] | %46
 z/ [=Ace=a]/[^Gce^g]/[Acea]/- [Acea]/[Fcef]/[=Gce=g]/[Acea]/ | [Bdb]2- [Bdb] z | %48
!mf! [Bgb]/[cac'][Bgb]/- [Bgb]/[^Fd^f]/[Geg] | [GBf]/g/[GB]- [GB]d/e/ | %50
 [Gg]/B/e/[GBeg]/- [GBeg]/f/d/e/ |!<(! [Ada]/[Ff]/[^F^f]/[Gg]/ [Aa]/[=A=a]/[Bb]/[=B=b]/!<)! | %52
 [cac']/[dbd'][cac']/- [cac']/[G=eg]/[Afa] | [Af]/[ca][Ad]/- [Ad][=E=e]/[Ff]/ | %54
 [Aa]/[Bb]/[cc']/[ee']/- [ee']/[dd']/[=B=b]/[cc']/ | %55
!<(! [GBeg]/[Ee]/[=E=e]/[Ff]/ [^F^f]/[Gg]/[Aa]/[=A=a]/!<)! | %56
!f! [Bgb]/[cac'][Bgb]/- [Bgb]/[^Fd^f]/[Geg] | [GBf]/g/[GB]- [GB]d/e/ | %58
 [Gg]/B/e/[GBeg]/- [GBeg]/f/d/e/ | [cc']/e/a/[ceac']/- [ceac']/[=Bea=b]/[ceac'] | %60
 [cac']/[dbd'][cac']/- [cac']/[G=eg]/[Afa] | [Gegb]/[egbe'][GBeg]/- [GBeg][=B=b]/[cc']/ | %62
 [Bdab]/[=Bda=b][dac']/- [dac']/[^c^c']/[da_bd'] | [egbe']2- [egbe']/[Bgb]/[=Af=a]/[Geg]/ || %64
[K:Bb]!mf! [FBdf][=EBd=e]/[FBdf]/- [FBdf]/[Bgb]/[Afa]/[G_eg]/ | %65
 [Aea]/c/e/[Acefa]/- [Acefa]/[Bgb]/[Afa]/[Geg]/ | %66
 [FAef]/[=EA=e][FA_ef]/- [FAef]/[^FAe^f]/[Geg]/[Ece]/ | %67
 [DBd]/F/B/[DFBd]/- [DFBd]/[Bgb]/[Afa]/[Geg]/ | %68
 [FBdf][=EBd=e]/[FBdf]/- [FBdf]/[df^gd']/[^cfg^c']/[dfgd']/ | %69
 [cfac']/f/a/[cfac']/- [cfac']/[Acfa]/[^Gcf^g]/[Acfa]/ | %70
 [c=egc']/[_ceg_c'][Begb]/- [Begb]/[^DB^d]/[=EB=e] | %71
!<(! [FAf]/[GBg]/[Aca]/[Bdb]/ [cec']/[dfd']/[ege']/[=e^c'=e']/!<)! | %72
!ff!!8va(! [fbd'f'][=ebd'=e']/[fbd'f']/- [fbd'f']/[bg'b']/[af'a']/[g_e'g']/ | %73
 [ae'a']/c'/e'/[ac'e'f'a']/- [ac'e'f'a']/[bg'b']/[af'a']/[ge'g']/ | %74
 [fae'f']/[=ea=e'][fa_e'f']/- [fae'f']/[^fae'^f']/[ge'g']/[ec'e']/ | %75
 [dbd']/f/b/[dfbd']/- [dfbd']/[bg'b']/[af'a']/[ge'g']/ | %76
 [fbd'f'][=ebd'=e']/[fbd'f']/- [fbd'f']/[bg'b']/[a^f'a']/[_a=f'_a']/ | %77
 [ge'g']/b/e'/[gbg']/- [gbg']/[bg'b']/[af'a']/[g=e'g']/ | %78
 [fbd'f']/[bd'b'][ac'a']/- [ac'a']/[^g=b^g']/[ac'a']/[c'e'c'']/ | %79
!>(! [bd'b']/[c'e'c'']/[bd'b']/[a^c'a']/ [_a=c'_a']/[faf']/[dbd']/[cac']/!8va)!!>)! || %80
[K:Eb]!mf!"^Loco" [Bgb]/[cac'][Bgb]/- [Bgb]/[^Fd^f]/[Geg] | [GBf]/g/[GB]- [GB]d/e/ | %82
 [Gg]/B/e/[GBeg]/- [GBeg]/f/d/e/ |!<(! [Ada]/[Ff]/[^F^f]/[Gg]/ [Aa]/[=A=a]/[Bb]/[=B=b]/!<)! | %84
 [cac']/[dbd'][cac']/- [cac']/[G=eg]/[Afa] | [Af]/[ca][Ad]/- [Ad][=E=e]/[Ff]/ | %86
 [Aa]/[Bb]/[cc']/[ee']/- [ee']/[dd']/[=B=b]/[cc']/ | %87
!<(! [GBeg]/[Ee]/[=E=e]/[Ff]/ [^F^f]/[Gg]/[Aa]/[=A=a]/!<)! | %88
!f! [Bgb]/[cac'][Bgb]/- [Bgb]/[^Fd^f]/[Geg] | [GBf]/g/[GB]- [GB]d/e/ | %90
 [Gg]/B/e/[GBeg]/- [GBeg]/f/d/e/ | [cc']/e/a/[ceac']/- [ceac']/[=Bea=b]/[ceac'] | %92
 [cac']/[dbd'][cac']/- [cac']/[G=eg]/[Afa] | [Gegb]/[egbe'][GBeg]/- [GBeg][=B=b]/[cc']/ | %94
 [Bdab]/[=Bda=b][dac']/- [dac']/[^c^c']/[da_bd'] | [egbe']!8va(![bd'a'b'] [e'g'b'e'']!8va)! z |] %96
V:2
 B[dfb] Fb | fe dF | [B,B][A,A] [G,G][F,F] |[K:bass] [B,,B,][A,,A,] [G,,G,][F,,F,] || %4
 !arpeggio![E,,B,,G,][G,B,E] [B,,,B,,][G,B,E] | [E,,E,][G,,G,] [_G,,_G,][F,,F,] | %6
 [E,,E,][G,,G,] [A,,A,][G,,G,] | [F,,F,][F,A,B,D] [B,,,B,,][F,A,B,D] | %8
 [F,,F,][F,A,B,D] [B,,,B,,][F,A,B,D] | [F,,F,][F,A,B,D] [B,,,B,,][F,A,B,D] | %10
 [F,,F,][F,A,B,D] [B,,,B,,][F,A,B,D] | [E,,E,][G,,G,] [_G,,_G,][F,,F,] | %12
 !arpeggio![E,,B,,G,][G,B,E] [B,,,B,,][G,B,E] | [E,,E,][G,,G,] [_G,,_G,][F,,F,] | %14
 [E,,E,][D,,D,] [_D,,_D,][C,,C,] | [A,,,A,,][E,A,C] [A,,,A,,][E,A,C] | %16
 [A,,,A,,][E,A,C] [A,,,A,,][E,A,C] | [B,,,B,,][G,B,E] [B,,,B,,][G,B,E] | %18
 [B,,B,][A,,A,] [F,,F,][B,,,B,,] | [E,,E,][G,B,E] [D,,D,][G,=B,F] || [C,,C,][G,CE] [C,,C,][G,CE] | %21
 [F,,F,][A,CF] [A,,,A,,][A,C] | [G,,,G,,][A,,,A,,] [=A,,,=A,,][=B,,,=B,,] | %23
 [C,,C,][E,G,C] [E,,E,][E,G,] | [C,,C,][G,CE] [E,,E,][G,CE] | [D,,D,][=B,DG] [D,,D,][G,B,D] | %26
 [D,,D,][C,,C,] [=B,,,=B,,][=A,,,=A,,] | [G,,,G,,] [^F,^F] [=F,=F][_F,_F] | %28
 [E,E][K:treble][GBe] B,e | BA GB, | [Ge][Af]/[Ge]/- [Ge][Fd] | [Ec][Fd]/[Ec]/- [Ec][DB] | %32
[K:bass] [F,,F,][F,A,B,D] [B,,,B,,][F,A,B,D] | %33
 [C,,C,]/[E,E]/[D,D]/[C,C]/ [B,,B,]/[A,,A,]/[G,,G,]/[F,,F,]/ | [E,,E,][G,B,E] [B,,,B,,][G,B,E] | %35
 [B,,B,][A,,A,] [G,,G,][B,,B,] |[K:treble] [Ge][Af]/[Ge]/- [Ge][Fd] | [Ec][Fd]/[Ec]/- [Ec][DB] | %38
[K:bass] [F,,F,][F,A,B,D] [B,,,B,,][F,A,B,D] | [E,,E,][G,B,E] [D,,D,][G,=B,F] | %40
 [C,,C,][G,CE] [C,,C,][G,CE] | [F,,F,][A,CF] [A,,,A,,][A,C] | %42
 [G,,,G,,][A,,,A,,] [=A,,,=A,,][=B,,,=B,,] | [C,,C,][E,G,C] [E,,E,][E,G,] | %44
 [C,,C,][G,CE] [E,,E,][G,CE] | [F,,F,][F,B,D] [F,,F,][F,B,D] | [F,,F,][=G,,=G,] [=A,,=A,][F,,F,] | %47
 [B,,B,][_A,,_A,] [G,,G,][F,,F,] | !arpeggio![E,,B,,G,][G,B,E] [B,,,B,,][G,B,E] | %49
 [E,,E,][G,,G,] [_G,,_G,][F,,F,] | [E,,E,][G,,G,] [A,,A,][G,,G,] | %51
 [F,,F,][F,A,B,D] [B,,,B,,][F,A,B,D] | [F,,F,][F,A,B,D] [B,,,B,,][F,A,B,D] | %53
 [F,,F,][F,A,B,D] [B,,,B,,][F,A,B,D] | [F,,F,][F,A,B,D] [B,,,B,,][F,A,B,D] | %55
 [E,,E,][G,,G,] [_G,,_G,][F,,F,] | !arpeggio![E,,B,,G,][G,B,E] [B,,,B,,][G,B,E] | %57
 [E,,E,][G,,G,] [_G,,_G,][F,,F,] | [E,,E,][D,,D,] [_D,,_D,][C,,C,] | %59
 [A,,,A,,][E,A,C] [A,,,A,,][E,A,C] | [A,,,A,,][E,A,C] [A,,,A,,][E,A,C] | %61
 [B,,,B,,][G,B,E] [B,,,B,,][G,B,E] | [B,,B,][A,,A,] [F,,F,][B,,,B,,] | [E,,E,]B,, E,, z || %64
[K:Bb] [B,,,B,,][F,B,D] F,,[F,B,D] | [C,,C,][F,A,E] F,,[F,A,E] | [C,,C,][F,A,E] F,,[F,A,E] | %67
 [B,,,B,,][D,F,B,] F,,[F,B,D] | [B,,,B,,][F,B,D] [B,,,B,,][=B,,,=B,,] | %69
 [C,,C,][A,CF] [C,,C,][A,CF] | [C,,C,][B,,B,] [A,,A,][G,,G,] | [F,,F,][E,,E,] [D,,D,][C,,C,] | %72
 [B,,,B,,][F,B,D] F,,[F,B,D] | [C,,C,][F,A,E] F,,[F,A,E] | [C,,C,][F,A,E] F,,[F,A,E] | %75
 [B,,,B,,][D,F,B,] F,,[F,B,D] | [B,,,B,,][F,B,D] [D,,D,][F,B,D] | %77
 [E,,E,][G,B,E] [=E,,=E,][G,B,^C] | [F,,F,][F,B,D] [F,,F,][F,A,E] | %79
[K:treble] [B,Fd]/e/d/^c/ =c/_A/B/A/ || %80
[K:Eb][K:bass] !arpeggio![E,,B,,G,][G,B,E] [B,,,B,,][G,B,E] | [E,,E,][G,,G,] [_G,,_G,][F,,F,] | %82
 [E,,E,][G,,G,] [A,,A,][G,,G,] | [F,,F,][F,A,B,D] [B,,,B,,][F,A,B,D] | %84
 [F,,F,][F,A,B,D] [B,,,B,,][F,A,B,D] | [F,,F,][F,A,B,D] [B,,,B,,][F,A,B,D] | %86
 [F,,F,][F,A,B,D] [B,,,B,,][F,A,B,D] | [E,,E,][G,,G,] [_G,,_G,][F,,F,] | %88
 !arpeggio![E,,B,,G,][G,B,E] [B,,,B,,][G,B,E] | [E,,E,][G,,G,] [_G,,_G,][F,,F,] | %90
 [E,,E,][D,,D,] [_D,,_D,][C,,C,] | [A,,,A,,][E,A,C] [A,,,A,,][E,A,C] | %92
 [A,,,A,,][E,A,C] [A,,,A,,][E,A,C] | [B,,,B,,][G,B,E] [B,,,B,,][G,B,E] | %94
 [B,,B,][A,,A,] [F,,F,][B,,,B,,] | [E,,E,][B,,,B,,] [E,,,E,,]"^Fine" z |] %96

